X:105
T:Widdicombe Fair - Collier
C:Taken down from W.F. Collier Esq., Woodtown, July 1888
%%VWML:SBG-1-1-92-0
F:http://www.vwml.org/record/SBG/1/1/92
Z:Original Sibleius Transcription by Martin and Shan Graebe
L:1/16
M:6/8
I:linebreak $
K:G
D2 | G4 G2 B4 A2 | F3 E D2 G4 z2 | G3 A G2 B3 A G2 | F3 F G2 A4 D D | G3 G G2 (B2A2) G2 | 
F3 E D2 E4 D D |$ E4 D2 E4 D2 | E4 D2 E4 D2 | E4 D2 E4 D2 | D3 c B2 A3 G F2 | (d6 d4) c2 | 
B3 c B2 A3 G F2 | G6  z2 z2 |] 
T:Widdicombe Fair - Nankivell
T:Taken down from Wm. Nankivell, Merivale Br. by F.W.B. Sept. 1890
L:1/8
M:6/8
I:linebreak $
K:G
D | GAG GEG | FEF G3 | AFD DEF | (G3 G2) G | A2 A ABc | [dd][Gd][GB] G3 |$"^chorus" DB,D DB,D | 
DB,"^&c."D D2 E | DcB AGF | G3 G2 G | d2 c BAB | cAF G3 |]  
T:Widdicombe Fair - Bickle
T:Taken down from R. Bickle, Two Bridges, Jan. 1890 by F.W.B.
L:1/8
M:6/8
I:linebreak $
K:G
G2 | G2 G GBA | GFG D3 | G>GG GBd | cBc A2 A |$ A2 A ABc | B2 D G2 D | GDG GDG | d2 c Bcd | 
cBA G3 |] 
T:Widdicombe Fair - Davies
T:From Wm. Davies, Kingsbridge
L:1/8
M:6/8
I:linebreak $
K:A
E | A2 c c2 B | A G F E2 z | A A A c B A | G G A B2 B | B2 B B c d |$ c B A G F E | 
w: |||||||
A A E A A E/ E/ | A A E A A E |"^&c." z3 z2 E/ E/ | E F E E F G |$ A2 z f2 f | E F E E F G | 
w: ||and old|uncle * * * * *|* And old||
A2 z !fermata!f2 f | e d c B A G | (A3 A2)  |] 
w: |||X:106
T:Widdicombe Fair - F J Adams
C:From Miss F.J. Adams as sung by her mother in 1822.
%%VWML:SBG-1-1-93-0
F:http://www.vwml.org/record/SBG/1/1/93
Z:Original Sibleius Transcription by Martin and Shan Graebe
L:1/8
M:6/8
I:linebreak $
K:G
G2 A B2 A | G F G D3 | G2 G c2 B | A3/2 c/ B A2 A | A B c d c B | A B G F2 E/D/ |$ G2 D G2 D | 
G2 D G2 D | G2 D G2 B, | C D E D G F | G3 G c | B d B A G A | G3  |] 
T:Widdicombe Fair - Westaway
T:From H. Westaway, Belstone, taken down by F.W.B.
L:1/8
M:6/8
I:linebreak $
K:G
D | G2 G B2 A | GEF D2 D | G2 G Bcd | cBc A2 G :| A2 A ABc | BAG FED |$ G2 D D2 D | 
w: ||* * * * Oh|Ri- fol- la- ri- dol|di- d- le die Oh.||* * * * w. Bill||
G2 D"^&c." z3 | D/ D/ GDC | B,2 B, !fermata!d2 c | Bcd cBA | G3  |] 
w: |& old un- cle Tom|Cob- leigh. Here is|un- cle Tom Cob- leigh &|all|
